public/Icon_carrot.svg

<svg width="128" height="128" viewBox="0 0 128 128" fill="none" xmlns="http://www.w3.org/2000/svg">
<path d="M91.4998 12.624L86.9998 19.248C86.9998 19.248 89.4518 21.156 90.6238 23.876C91.6398 26.264 92.3758 29.064 88.4998 33.748L84.9998 37.252C73.2198 27.22 61.2478 26.748 61.2478 26.748H58.9998L57.7478 28.748C57.7478 28.748 47.5478 46.092 37.7478 64C32.8478 72.952 27.9998 82.064 24.6318 89.252C22.9398 92.844 21.6118 95.972 20.7518 98.5C20.3318 99.764 20.0318 100.828 19.8798 102C19.7198 103.172 19.2838 104.78 21.2518 106.752C23.2238 108.72 24.8318 108.28 26.0038 108.124C27.1758 107.968 28.2398 107.672 29.5038 107.252C32.0358 106.392 35.1598 105.064 38.7558 103.372C45.9318 100 55.0438 95.16 63.9998 90.256C81.8918 80.44 99.2518 70.256 99.2518 70.256L101.252 69.004V66.628C101.252 66.628 100.72 54.8 90.7518 43.004L92.1238 41.504C92.4678 41.16 92.7798 40.924 93.1238 40.628L94.1238 39.752C98.8438 36.128 103.312 36.272 107.252 37.256C109.985 37.9466 112.569 39.1315 114.876 40.752L119.876 34.504C119.876 34.504 115.436 31.084 109.124 29.504C107.728 29.1759 106.307 28.9671 104.876 28.88L113 20.752L107.248 15.004L98.8758 23.38C98.6737 22.4365 98.3803 21.5148 97.9998 20.628C95.7478 15.38 91.4998 12.628 91.4998 12.628V12.624ZM63.2478 35.248C65.8758 35.5 73.3918 36.592 82.3758 45.624C91.3758 54.688 92.4838 62.144 92.7478 64.748C92.0918 65.14 88.6718 67.204 85.9998 68.748C84.5829 65.6054 82.8214 62.6299 80.7478 59.876L74.3758 64.752C77.1878 68.5 78.3438 71.08 78.9998 72.752C72.7352 76.3011 66.443 79.8012 60.1238 83.252C59.7358 83.452 59.3918 83.672 58.9998 83.876C58.2638 81.688 57.0638 79.048 54.8758 76L48.3758 80.624C50.3438 83.376 51.3118 85.64 51.7518 87.124C51.8278 87.376 51.8278 87.436 51.8718 87.624C45.8918 90.828 40.1118 93.904 35.3758 96.124C32.9078 97.284 31.1558 97.924 29.3758 98.624C30.0798 96.844 30.7198 95.092 31.8758 92.624C35.1078 85.736 39.8918 76.752 44.7478 67.876C47.0918 63.596 48.8758 60.392 50.9998 56.624C52.2798 57.748 53.9358 59.264 55.7518 61.624L61.9998 56.748C59.9711 54.0553 57.6203 51.6212 54.9998 49.5C59.1878 42.156 62.5318 36.484 63.2518 35.248H63.2478Z" fill="white"/>
</svg>

<svg xmlns="http://www.w3.org/2000/svg" width="128" height="128" fill="none"><path fill="#fff" d="M91.5 12.624 87 19.248s2.452 1.908 3.624 4.628c1.016 2.388 1.752 5.188-2.124 9.872L85 37.252C73.22 27.22 61.248 26.748 61.248 26.748H59l-1.252 2s-10.2 17.344-20 35.252c-4.9 8.952-9.748 18.064-13.116 25.252-1.692 3.592-3.02 6.72-3.88 9.248-.42 1.264-.72 2.328-.872 3.5-.16 1.172-.596 2.78 1.372 4.752 1.972 1.968 3.58 1.528 4.752 1.372 1.172-.156 2.236-.452 3.5-.872 2.532-.86 5.656-2.188 9.252-3.88C45.932 100 55.044 95.16 64 90.256c17.892-9.816 35.252-20 35.252-20l2-1.252v-2.376s-.532-11.828-10.5-23.624l1.372-1.5c.344-.344.656-.58 1-.876l1-.876c4.72-3.624 9.188-3.48 13.128-2.496a23.117 23.117 0 0 1 7.624 3.496l5-6.248s-4.44-3.42-10.752-5a25.279 25.279 0 0 0-4.248-.624L113 20.752l-5.752-5.748-8.372 8.376A14.888 14.888 0 0 0 98 20.628c-2.252-5.248-6.5-8-6.5-8v-.004ZM63.248 35.248c2.628.252 10.144 1.344 19.128 10.376 9 9.064 10.108 16.52 10.372 19.124-.656.392-4.076 2.456-6.748 4a46.574 46.574 0 0 0-5.252-8.872l-6.372 4.876c2.812 3.748 3.968 6.328 4.624 8-6.265 3.55-12.557 7.05-18.876 10.5-.388.2-.732.42-1.124.624-.736-2.188-1.936-4.828-4.124-7.876l-6.5 4.624c1.968 2.752 2.936 5.016 3.376 6.5.076.252.076.312.12.5-5.98 3.204-11.76 6.28-16.496 8.5-2.468 1.16-4.22 1.8-6 2.5.704-1.78 1.344-3.532 2.5-6 3.232-6.888 8.016-15.872 12.872-24.748A978.828 978.828 0 0 1 51 56.624c1.28 1.124 2.936 2.64 4.752 5L62 56.748a41.292 41.292 0 0 0-7-7.248c4.188-7.344 7.532-13.016 8.252-14.252h-.004Z"/></svg>
